icons/communication/comment-closed-24.svg

<svg width="24" height="24" viewBox="0 0 24 24" fill="none" xmlns="http://www.w3.org/2000/svg">
<path fill-rule="evenodd" clip-rule="evenodd" d="M7 10C7 7.23858 9.23858 5 12 5C14.7614 5 17 7.23858 17 10C17 12.7614 14.7614 15 12 15C9.23858 15 7 12.7614 7 10ZM12 6.5C11.3049 6.5 10.6572 6.7026 10.1126 7.05197L14.948 11.8874C15.2974 11.3428 15.5 10.6951 15.5 10C15.5 8.067 13.933 6.5 12 6.5ZM8.5 10C8.5 9.30495 8.7026 8.65721 9.05197 8.11263L13.8874 12.948C13.3428 13.2974 12.6951 13.5 12 13.5C10.067 13.5 8.5 11.933 8.5 10Z" fill="black"/>
<path fill-rule="evenodd" clip-rule="evenodd" d="M1 3.75C1 2.7835 1.7835 2 2.75 2H21.25C22.2165 2 23 2.7835 23 3.75V16.25C23 17.2165 22.2165 18 21.25 18H11.1406C11.0778 18 11.0173 18.0236 10.9712 18.0662L7.09724 21.6374C6.29633 22.3757 5 21.8076 5 20.7183V18H2.75C1.7835 18 1 17.2165 1 16.25V3.75ZM2.75 3.5C2.61193 3.5 2.5 3.61193 2.5 3.75V16.25C2.5 16.3881 2.61193 16.5 2.75 16.5H5.5C6.05228 16.5 6.5 16.9477 6.5 17.5V20.1478L9.95446 16.9633C10.2776 16.6654 10.7011 16.5 11.1406 16.5H21.25C21.3881 16.5 21.5 16.3881 21.5 16.25V3.75C21.5 3.61193 21.3881 3.5 21.25 3.5H2.75Z" fill="black"/>
</svg>

<svg xmlns="http://www.w3.org/2000/svg" width="24" height="24"><path fill-rule="evenodd" d="M7 10a5 5 0 1110 0 5 5 0 01-10 0zm5-3.5c-.695 0-1.343.203-1.887.552l4.835 4.835A3.5 3.5 0 0012 6.5zM8.5 10c0-.695.203-1.343.552-1.887l4.835 4.835A3.5 3.5 0 018.5 10z"/><path fill-rule="evenodd" d="M1 3.75C1 2.784 1.784 2 2.75 2h18.5c.966 0 1.75.784 1.75 1.75v12.5A1.75 1.75 0 0121.25 18H11.14a.25.25 0 00-.169.066l-3.874 3.571c-.8.739-2.097.17-2.097-.919V18H2.75A1.75 1.75 0 011 16.25V3.75zm1.75-.25a.25.25 0 00-.25.25v12.5c0 .138.112.25.25.25H5.5a1 1 0 011 1v2.648l3.454-3.185a1.75 1.75 0 011.187-.463H21.25a.25.25 0 00.25-.25V3.75a.25.25 0 00-.25-.25H2.75z"/></svg>
